src/images/icons/gdpr-compliant.svg

<svg xmlns="http://www.w3.org/2000/svg" width="48" height="48" viewBox="0 0 48 48">
  <g fill="none" fill-rule="evenodd">
    <circle cx="24" cy="24" r="24" fill="#297EF2"/>
    <path fill="#BAD8FF" fill-rule="nonzero" d="M9,13.375 C9,34.0429837 17.0794009,37.670365 23.9976284,41 C30.9158976,37.670365 39,34.0429837 39,13.375 L23.9984228,7 L9,13.375 Z"/>
    <path fill="#297EF2" d="M22.3679566,19 L22.3679566,20.7651052 L18.3082145,20.7651052 L18.3082145,23.0733198 L21.4175153,23.0733198 L21.4175153,24.7705363 L18.3082145,24.7705363 L18.3082145,27.1262729 L22.3679566,27.1262729 L22.3679566,28.8913781 L16,28.8913781 L16,19 L22.3679566,19 Z M27.7854718,27.0787508 C28.0932353,27.0787508 28.3681816,27.0278349 28.6103191,26.9260014 C28.8524565,26.8241679 29.0572519,26.6782087 29.2247115,26.4881195 C29.392171,26.2980303 29.5200267,26.0660797 29.6082824,25.7922607 C29.6965381,25.5184417 29.7406653,25.2072885 29.7406653,24.8587916 L29.7406653,19 L32.0353021,19 L32.0353021,24.8587916 C32.0353021,25.4652667 31.9368645,26.0219481 31.7399864,26.5288527 C31.5431083,27.0357572 31.2613732,27.4725033 30.8947726,27.8391039 C30.528172,28.2057045 30.0823742,28.490834 29.5573659,28.694501 C29.0323576,28.898168 28.4417322,29 27.7854718,29 C27.1246855,29 26.5317971,28.898168 26.0067889,28.694501 C25.4817806,28.490834 25.0359828,28.2057045 24.6693822,27.8391039 C24.3027816,27.4725033 24.0221779,27.0357572 23.8275628,26.5288527 C23.6329477,26.0219481 23.5356415,25.4652667 23.5356415,24.8587916 L23.5356415,19 L25.8302783,19 L25.8302783,24.8520027 C25.8302783,25.2004996 25.8744055,25.5116529 25.9626612,25.7854718 C26.0509169,26.0592908 26.1787726,26.2923729 26.3462322,26.4847251 C26.5136917,26.6770772 26.7184871,26.8241679 26.9606246,26.9260014 C27.202762,27.0278349 27.4777084,27.0787508 27.7854718,27.0787508 Z"/>
  </g>
</svg>

<svg xmlns="http://www.w3.org/2000/svg" width="48" height="48"><g fill="none" fill-rule="evenodd"><circle cx="24" cy="24" r="24" fill="#297EF2"/><path fill="#BAD8FF" fill-rule="nonzero" d="M9 13.375C9 34.043 17.08 37.67 23.998 41 30.916 37.67 39 34.043 39 13.375L23.998 7 9 13.375Z"/><path fill="#297EF2" d="M22.368 19v1.765h-4.06v2.308h3.11v1.698h-3.11v2.355h4.06v1.765H16V19h6.368Zm5.417 8.079c.308 0 .583-.051.825-.153.242-.102.447-.248.615-.438.167-.19.295-.422.383-.696.089-.274.133-.585.133-.933V19h2.294v5.859c0 .606-.098 1.163-.295 1.67a3.746 3.746 0 0 1-.845 1.31 3.814 3.814 0 0 1-1.338.856c-.525.203-1.115.305-1.772.305-.66 0-1.253-.102-1.778-.305a3.814 3.814 0 0 1-1.338-.856 3.707 3.707 0 0 1-.841-1.31 4.623 4.623 0 0 1-.292-1.67V19h2.294v5.852c0 .348.044.66.133.933.088.274.216.507.383.7.168.192.372.34.615.441.242.102.517.153.824.153Z"/></g></svg>
